client/src/assets/images/icon-task-patient-provisions.svg

<svg viewBox="0 0 122 122" xmlns="http://www.w3.org/2000/svg"><g fill="#fff"><path d="m72.11 61.82h-8.19v-8.19a1.25 1.25 0 0 0 -2.5 0v8.19h-8.19a1.25 1.25 0 0 0 0 2.5h8.19v8.19a1.25 1.25 0 0 0 2.5 0v-8.19h8.19a1.25 1.25 0 1 0 0-2.5z"/><path d="m90.09 38.06h-14.66v-4.89a4.76 4.76 0 0 0 -4.76-4.75h-16a4.76 4.76 0 0 0 -4.76 4.75v4.89h-14.66a6.9 6.9 0 0 0 -6.89 6.94v35.68a6.9 6.9 0 0 0 6.89 6.89h54.84a6.9 6.9 0 0 0 6.91-6.89v-35.68a6.9 6.9 0 0 0 -6.91-6.94zm-38.18-4.89a2.76 2.76 0 0 1 2.76-2.75h16a2.76 2.76 0 0 1 2.76 2.75v4.89h-21.52zm43.09 47.51a4.89 4.89 0 0 1 -4.89 4.89h-54.86a4.89 4.89 0 0 1 -4.89-4.89v-35.68a4.89 4.89 0 0 1 4.89-4.89h54.84a4.89 4.89 0 0 1 4.91 4.89z"/></g></svg>

<svg xmlns="http://www.w3.org/2000/svg" viewBox="0 0 122 122"><defs><style>.cls-1{fill:#fff;}</style></defs><title>Week 22_Icons</title><g id="Content"><path class="cls-1" d="M72.11,61.82H63.92V53.63a1.25,1.25,0,0,0-2.5,0v8.19H53.23a1.25,1.25,0,0,0,0,2.5h8.19v8.19a1.25,1.25,0,0,0,2.5,0V64.32h8.19a1.25,1.25,0,1,0,0-2.5Z"/><path class="cls-1" d="M90.09,38.06H75.43V33.17a4.76,4.76,0,0,0-4.76-4.75h-16a4.76,4.76,0,0,0-4.76,4.75v4.89H35.25A6.9,6.9,0,0,0,28.36,45V80.68a6.9,6.9,0,0,0,6.89,6.89H90.09A6.9,6.9,0,0,0,97,80.68V45A6.9,6.9,0,0,0,90.09,38.06ZM51.91,33.17a2.76,2.76,0,0,1,2.76-2.75h16a2.76,2.76,0,0,1,2.76,2.75v4.89H51.91ZM95,80.68a4.89,4.89,0,0,1-4.89,4.89H35.25a4.89,4.89,0,0,1-4.89-4.89V45a4.89,4.89,0,0,1,4.89-4.89H90.09A4.89,4.89,0,0,1,95,45Z"/></g></svg>
